src/assets/images/house.svg

<svg fill="none" height="30" viewBox="0 0 30 30" width="30" xmlns="http://www.w3.org/2000/svg" xmlns:xlink="http://www.w3.org/1999/xlink"><clipPath id="a"><path d="m0 0h30v30h-30z"/></clipPath><g clip-path="url(#a)" fill="#5a57c6"><path d="m28 2h-26v-2h26zm-25.98 2.804c.04529-.22661.16767-.43054.34634-.57711.17866-.14658.40257-.22675.63366-.22689h24c.2311.00014.455.08031.6337.22689.1786.14657.301.3505.3463.57711l2 10c.029.145.0254.2947-.0104.4382-.0358.1434-.103.2772-.1967.3916s-.2117.2066-.3453.2699c-.1337.0633-.2797.0962-.4276.0963h-28c-.147891-.0001-.293921-.033-.42757-.0963s-.251589-.1555-.345322-.2699c-.093734-.1144-.1609277-.2482-.1967408-.3916-.03581314-.1435-.0393539-.2932-.0103672-.4382zm-.02 13.196v10h-2v2h30v-2h-2v-10h-4v4h-18v-4z"/><path d="m8 18h14v2h-14z"/></g></svg>

<svg width="30" height="30" viewBox="0 0 30 30" fill="none" xmlns="http://www.w3.org/2000/svg">
<g clip-path="url(#clip0_153_645)">
<path d="M28 2H2V0H28V2ZM2.02 4.804C2.06529 4.57739 2.18767 4.37346 2.36634 4.22689C2.545 4.08031 2.76891 4.00014 3 4H27C27.2311 4.00014 27.455 4.08031 27.6337 4.22689C27.8123 4.37346 27.9347 4.57739 27.98 4.804L29.98 14.804C30.009 14.949 30.0054 15.0987 29.9696 15.2422C29.9338 15.3856 29.8666 15.5194 29.7729 15.6338C29.6792 15.7482 29.5612 15.8404 29.4276 15.9037C29.2939 15.967 29.1479 15.9999 29 16H1C0.852109 15.9999 0.706079 15.967 0.57243 15.9037C0.438781 15.8404 0.320841 15.7482 0.227108 15.6338C0.133374 15.5194 0.0661803 15.3856 0.0303672 15.2422C-0.00544594 15.0987 -0.0089867 14.949 0.02 14.804L2.02 4.804ZM2 18V28H0V30H30V28H28V18H24V22H6V18H2Z" fill="#5A57C6"/>
<path d="M8 18H22V20H8V18Z" fill="#5A57C6"/>
</g>
<defs>
<clipPath id="clip0_153_645">
<rect width="30" height="30" fill="white"/>
</clipPath>
</defs>
</svg>
